!!!OTL: 499. Letzter Abschiedskuss.
!!!ARE: Europa, Mitteleuropa, Deutschland, Wetzlar, Hellertshausen
!!!SCT: B0499
!!!TXL: @@DE
!!!YEM: Copyright 1995, estate of Helmut Schaffrath.
**kern	**text
*ICvox	*
*Ivox	*
*clefG2	*
*M4/4	*
*met(c)	*
*k[]	*
*C:	*
!LO:TX:a:t=Sehr langſam.	!
{8g	Was
8.a	grämſt
16g	du
=1	=1
4.e	dich,
8g	was
8g	weinſt
8e	du,
8a	mei-
8e	-ne
=2	=2
4g^	Lie-
4f	-be,
8r}	.
{8f	daß
8dd	ich
8cc	nun
=3	=3
4.b	ein-
8a	-mal
8.g	von
16d	dir
8a	ſchei-
8g	-den
=4	=4
2e	muß?
8r}	.
{8g	O
8cc	wei-
8b	-ne
=5	=5
4.a	nicht!
8a	Dein
8a	hol-
8a	-des
8dd	Aug'
8cc	ſich
=6	=6
4cc	trü-
4b	-bet,
8r}	.
{8g	und
8g	rei-
8cc	-che
=7	=7
4.b	mir
8a	den
8g	letʒ-
8f	-ten
8a^	Ab-
8g	-ſchieds-
=8	=8
2e	-kuß!
8r}	.
==	==
!!!AGN: Abschieds - Lied
!!!GTL: Abschiedslieder
!!!ONB: ESAC (Essen Associative Code) Database: BOEHME
!!!AMT: simple quadruple
!!!AIN: vox
!!!EED: Helmut Schaffrath
!!!EEV: 1.0
!!Muendlich aus Hellertshausen (Kr. Wetzlar 1892) durch K. Becker.
!!!URL-scan: https://archive.org/details/BoehmeVtLieder1895/page/n399/mode/2up
!!!ENC: Anna Maria Matuszewska
!!!EEV: 2024/10/07
*-	*-
